X:1
T:Title
%%score ( 1 2 ) { 3 | 4 }
L:1/8
Q:1/4=100
M:6/8
K:G
V:1 treble nm="Grand Piano, Soprano"
V:2 treble 
V:3 bass nm="Choir Pad, Hokkaido, John R. Sweney"
V:4 bass 
V:1
 [DB]3 [B,G]2 [CA] | [DB][B,D][CE] [B,D] [DG]2 | [FA][FA][FA] [FA][EG][FA] | G3- [Gd]3 | %4
w: By~John~Robson~Sweney,~1888 * *||||
 [DB]3 [B,G]2 [CA] | [DB][B,D][CE] [B,D] [DG]2 | [^CA][CA][CG] [DB][DB]>[DA] | [DG]6 | %8
w: ||||
 [EG]3 [Ec]2 [CE] | [CE][EG][Gc] [Gc] [GB]2 | [FA]3 [Fd]2 [DF] | [^CA][CG][CE] D2 c | %12
w: ||||
 [DB]3 [B,G]2 [CA] | [DB][B,D][CE] [B,D] [DG]2 | [^CA][CA][CG] [DB][DB]>[DA] | [DG]6- | [DG]3 z3 |] %17
w: |||||
V:2
 x6 | x6 | x6 | B3 z3 | x6 | x6 | x6 | x6 | x6 | x6 | x6 | x6 | x6 | x6 | x6 | x6 | x6 |] %17
V:3
 G,3 D,2 D, | G,G,G, G, B,2 | DDD DDD | D3[K:bass] B,3 | G,3 D,2 D, | G,G,G, G, B,2 | %6
 A,A,A, G,G,>[K:treble]C | B,6 | CCC[K:bass] G,G,G, | G,C[K:treble]E E D2 | DDD[K:bass] A,A,A, | %11
 E,E,G, F,>G,A, | G,3 D,2 D, | G,G,G, G, B,2 | A,A,A, G,G,>C | B,6- | B,3 z3 |] %17
V:4
 G,,3 G,,2 G,, | G,,G,,G,, G,, G,,2 | D,D,D, D,D,D, | G,6 | z3 G,,2 G,, | G,,G,,G,, G,, G,,2 | %6
 E,E,E, D,D,>D, | G,,6 | C,C,C, C,C,C, | C,C,C, G, G,2 | A,A,A, z2 A,, | A,,A,,A,, D,>E,F, | %12
 z3 G,,2 G,, | G,,G,,G,, G,, G,,2 | E,E,E, D,D,>D, | G,,6- | G,,3 z3 |] %17

